X: 1211
T: Buckley's Fancy
M:C|
L:1/8
R:Reel
B:O'Neill's 1211
N:Collected by McFadden
Z:Transcribed by Trish O'Neil
K:G
D2|G2(BG) dGBG|ABcd (3efg dB|G2(BG) dGBG|ABAG FDEF|
G2(BG) dGBG|ABcd e2g2|(3bag (3agf gedB|GBAFG2||
(ef)|gfga gede|gabg ageg|{b}agab agef|gabge2de|
gfga gede|gabg agef|gfga gedB|GBAFG2||


